X:181
T:Gobby O, The TS.181
M:6/8
L:1/8
Q:3/8=120
S:Thomas Sands’ MS,1810,Lincolnshire
R:jig
O:England;Lincolnshire
Z:vmp.Ruairidh Greig, 2011
K:Am
B|c2A ABA|E2A ABc|B2G GBd|dBGG2B|
c2A ABA|B2ee2g|edc BAG|E2AAz:|
|:c|A2Bc2d|e2^fg3|^fafg2d|dBGG2B|
A2Bc2d|e2^fg2d|edc BAG|E2AA2:|]

